resources/svg/pound.svg

<svg width="15" height="15" viewBox="0 0 15 15" fill="none" xmlns="http://www.w3.org/2000/svg">
<path fill-rule="evenodd" clip-rule="evenodd" d="M3 4.44174C3 1.98864 4.98864 0 7.44175 0H8.30742C10.1381 0 11.7843 1.11456 12.4642 2.8143L11.5358 3.1857C11.0077 1.86561 9.72919 1 8.30742 1H7.44175C5.54092 1 4 2.54092 4 4.44174V7H9V8H4V11.5C4 11.8461 3.94564 12.1826 3.84382 12.5H4.08359C5.09269 12.5 6.08792 12.7349 6.99048 13.1862L7.04032 13.2111L6.81672 13.6584L7.04033 13.2111C8.58873 13.9853 10.4113 13.9853 11.9597 13.2111L13.2764 12.5528L13.7236 13.4472L12.4069 14.1056C10.577 15.0205 8.42304 15.0205 6.59312 14.1056L6.54327 14.0807L6.76688 13.6334L6.54327 14.0807C5.77956 13.6988 4.93744 13.5 4.08359 13.5H3.31835C2.92985 14.0038 2.39412 14.3957 1.76075 14.6068L0.658116 14.9743L0.341888 14.0257L1.44452 13.6581C2.37344 13.3485 3 12.4792 3 11.5V8H1V7H3V4.44174Z" fill="black"/>
</svg>

<svg viewBox="0 0 15 15" fill="none" xmlns="http://www.w3.org/2000/svg" fill="currentColor"><path fill-rule="evenodd" clip-rule="evenodd" d="M3 4.442A4.442 4.442 0 017.442 0h.865a4.477 4.477 0 014.157 2.814l-.928.372A3.477 3.477 0 008.307 1h-.865A3.44 3.44 0 004 4.442V7h5v1H4v3.5c0 .346-.054.683-.156 1h.24a6.5 6.5 0 012.906.686l.05.025-.223.447.223-.447a5.5 5.5 0 004.92 0l1.316-.658.448.894-1.317.659a6.5 6.5 0 01-5.814 0l-.05-.025.224-.448-.224.448a5.5 5.5 0 00-2.46-.581h-.765a3.27 3.27 0 01-1.557 1.107l-1.103.367-.316-.948 1.103-.368A2.275 2.275 0 003 11.5V8H1V7h2V4.442z" fill="currentColor"/></svg>
